X:0
T:Schottisch efter Greiffe
T:(SvL Halland 126)
R:Schottis
O:Släp, Halland
S:Greiffe
S:Fritz Oskar Brogren
B:Svenska Låtar Halland
M:C|
L:1/8
K:A
(ED)|C>EA>c e>df>e|c2 A2 Aced|B2 G2 GBfe|c2 A2 A2 (ED)|
C>EA>c e>df>e|c2 A2 Aced|B2 G2 (GE)FG|1A2 A2 A2:|2A2 A2 A2 z2]|
|:E>FE>D C>EA>c|E>FE>D C>EA>c|B2 (Bc) dBGB|A2 Ac E4|
E>FE>D C>EA>c|E>FE>D C>EA>c|B2 (Bc) dB(GB)|1A2 A2 A2 z2:|2A2 A2 A2]|

